X:1
T:Test
T:Zug der Zwerge 
T:Edward Grieg, Op. 54 No.3
T:Lyrische Stücke
%%score { ( 1 3 ) | ( 2 4 ) }
L:1/8
Q:1/2=80
M:2/4
K:F
V:1 treble nm="Klavier" snm="Flgl."
V:3 treble 
V:2 bass 
V:4 bass 
V:1
 z4 | z3 (D/4E/4F/4G/4 | .A).[DFd].[DFd].[DF^c] | .[DF^c].[DF=c].[DFc].[DF=B] | %4
 .[DF=B].[DF_B].[DFB].[DFA] | .[=B,E^G] !tenuto![B,EG]2 (=G/4A/4!courtesy!_B/4c/4 | %6
 .d).[GBg].[GBg].[GB^f] | .[GB^f].[GB=f].[GBf].[GBe] | .[GBe].[GB_e].[GBe].[GBd] | %9
 .[EA^c] !tenuto![EAc]2 z | (!>!d/4e/4f/4g/4.a) (!>!g/4f/4e/4d/4.c) | %11
 (!>!B/4c/4d/4e/4.f) (!>!e/4d/4c/4B/4.A) | (!>!G/4A/4B/4c/4.d) (!>!c/4B/4A/4G/4.F) | z [A,E]3 | %14
!pp! (!>!d'/4c'/4b/4a/4.g) (!>!d/4c/4B/4A/4.G) | z [A,E]3 | %16
 (!>!d'/4c'/4b/4a/4.g) (!>!d/4c/4B/4A/4.G) | z [A,E] (!>!d/4c/4B/4A/4.G) | %18
 z [A,E] (!>!d/4c/4B/4A/4.G) | z [A,E] (!>!d/4c/4B/4A/4.G) | z [A,E] (!>!d/4c/4B/4A/4.G) | %21
 z [A,^CE]z[B,CE] | z [^G,^CE]z[A,CE] |"_cresc." z [B,^CE]z[=B,CE] | z [C^CE]z[=B,^CE] | %25
 z [!courtesy!_B,^CE]z[A,CE] |[K:bass] z [^G,^CE]z[=G,!courtesy!_B,C] | z!<(! [^F,B,^C]z[=F,B,C] | %28
 z [E,A,^C]z!<)![_E,G,A,C] | z4 | z3[K:treble] (d/4e/4f/4g/4 | .a).[dfd'].[dfd'].[df^c'] | %32
 .[df^c'].[df=c'].[dfc'].[df=b] | .[df=b].[df_b].[dfb].[dfa] | %34
 .[=Be^g] !tenuto![Beg]2 (=g/4a/4b/4c'/4 | .d').[gbg'].[gbg'].[gb^f'] | %36
 .[gb^f'].[gb=f'].[gbf'].[gbe'] | .[gbe'].[gb^d'].[gbd'].[gb=d'] | .[ea^c'] !tenuto![eac']2 z | %39
!8va(! (!>!d'/4e'/4f'/4g'/4.a') (!>!g'/4f'/4e'/4d'/4.c') | %40
 (!>!b/4c'/4d'/4e'/4.f') (!>!e'/4d'/4c'/4b/4.a) | (!>!g/4a/4b/4c'/4.d') (!>!c'/4b/4a/4g/4.f) | %42
 .[eae'] !tenuto![eae']2 z | (!>!b/4c'/4d'/4e'/4.f') (!>!e'/4d'/4c'/4b/4.a) | %44
 (!>!g/4a/4b/4c'/4.d') (!>!c'/4b/4a/4g/4.f) | (!>!_e/4f/4g/4a/4.b) (!>!a/4g/4f/4e/4.d) | %46
 .[Aea] !tenuto![Aea]2!8va)! z |"_dim." (!>!d/4e/4f/4g/4.a) (!>!g/4f/4e/4d/4.c) | %48
 (!>!B/4c/4d/4e/4.f) (!>!e/4d/4c/4B/4.A) | (!>!G/4A/4B/4c/4.d) (!>!c/4B/4A/4G/4.F) | %50
 .[EAe] !tenuto![EAe]2 z | (!>!B/4c/4d/4e/4.f) (!>!e/4d/4c/4B/4.A) | %52
 (!>!G/4A/4B/4c/4.d) (!>!c/4B/4A/4G/4.F) | (!>!_E/4F/4G/4A/4.B) (!>!A/4G/4F/4E/4.D) | %54
 .[A,!courtesy!=EA] !tenuto![A,EA]2 z |!p! (!>!d'/4c'/4b/4a/4.g) (!>!d/4c/4B/4A/4.G) | %56
 z !tenuto![A,!courtesy!=EA]3 | (!>!d'/4c'/4b/4a/4.g) (!>!d/4c/4B/4A/4.G) | %58
 z !tenuto![A,!courtesy!=EA] (!>!d/4c/4B/4A/4.G) | %59
 z !tenuto![A,!courtesy!=EA] (!>!d/4c/4B/4A/4.G) | %60
 z !tenuto![A,!courtesy!=EA] (!>!d/4c/4B/4A/4.G) | %61
 z !tenuto![A,!courtesy!=EA] (!>!d/4c/4B/4A/4.G) | z3[K:bass] (D,/4E,/4F,/4G,/4 | %63
 .A,).[D,F,D].[D,F,D].[D,F,^C] | .[D,F,^C].[D,F,=C].[D,F,C].[D,F,=B,] | %65
 .[D,F,=B,].[D,F,_B,].[D,F,B,][D,F,A,]- | [D,F,A,]4 | z4 |[K:treble] z4 | !fermata!a4- || %70
[K:D][Q:1/4=120]!p! (a2 bc' | d'2 c'b | c' a2 c') |{/c'} f4 | (a2 bc' |!<(! d'2 c'b!<)! | %76
 c'!>(! f2 c') |{/c'} a4!>)! | (A2 Bc | d2 cB | c2 Ac) |{/c} F4 | (A2 Bc | d2 cB | c2 Fc) | %85
{/c} A4 | x4 | x4 | z (G/c/B/e/d/g/ | e/a/g/c'/b/e'/) z | x4 | x4 | z (_E/A/G/=c/_B/_e/ | %93
 =c/=f/_e/a/g/=c'/) z | z (=C/F/E/A/G/=c/ |A/d/=c/f/e/a/) !fermata!z |!p! (d'2 e'f' | g'2 f'e' | %98
 f' d'2 f') |{/f'} b4 |!<(! (d'2 e'f' | g'2 f'e' | f' b2 f')!<)! |!>(!{/f'} d'4!>)! | (d2 ef | %105
 g2 fe | f2 df) |{/f} B4 | (d2 ef | g2 fe | f2 Bf) |{/f} d4 | x4 | z g/d'/b/g'/d'/b'/ | x4 | %115
 z f/d'/a/f'/d'/a'/ | x4 | z G/d/B/g/d/b/ | x4 | z F/d/A/f/d/a/ | z4 | z4 | z4 || %123
[K:F][Q:1/2=80] z4 | z3 (D/4E/4F/4G/4 | .A).[DFd].[DFd].[DF^c] | .[DF^c].[DF=c].[DFc].[DF=B] | %127
 .[DF=B].[DF_B].[DFB].[DFA] | .[=B,E^G] !tenuto![B,EG]2 (=G/4A/4!courtesy!_B/4c/4 | %129
 .d).[GBg].[GBg].[GB^f] | .[GB^f].[GB=f].[GBf].[GBe] | .[GBe].[GB_e].[GBe].[GBd] | %132
 .[EA^c] !tenuto![EAc]2 z | (!>!d/4e/4f/4g/4.a) (!>!g/4f/4e/4d/4.c) | %134
 (!>!B/4c/4d/4e/4.f) (!>!e/4d/4c/4B/4.A) | (!>!G/4A/4B/4c/4.d) (!>!c/4B/4A/4G/4.F) | z [A,E]3 | %137
!pp! (!>!d'/4c'/4b/4a/4.g) (!>!d/4c/4B/4A/4.G) | z [A,E]3 | %139
 (!>!d'/4c'/4b/4a/4.g) (!>!d/4c/4B/4A/4.G) | z [A,E] (!>!d/4c/4B/4A/4.G) | %141
 z [A,E] (!>!d/4c/4B/4A/4.G) | z [A,E] (!>!d/4c/4B/4A/4.G) | z [A,E] (!>!d/4c/4B/4A/4.G) | %144
 z [A,^CE]z[B,CE] | z [^G,^CE]z[A,CE] |"_cresc." z [B,^CE]z[=B,CE] | z [C^CE]z[=B,^CE] | %148
 z [!courtesy!_B,^CE]z[A,CE] |[K:bass] z [^G,^CE]z[=G,!courtesy!_B,C] | z!<(! [^F,B,^C]z[=F,B,C] | %151
 z [E,A,^C]z!<)![_E,G,A,C] | z4 | z3[K:treble] (d/4e/4f/4g/4 | .a).[dfd'].[dfd'].[df^c'] | %155
 .[df^c'].[df=c'].[dfc'].[df=b] | .[df=b].[df_b].[dfb].[dfa] | %157
 .[=Be^g] !tenuto![Beg]2 (=g/4a/4b/4c'/4 | .d').[gbg'].[gbg'].[gb^f'] | %159
 .[gb^f'].[gb=f'].[gbf'].[gbe'] | .[gbe'].[gb^d'].[gbd'].[gb=d'] | .[ea^c'] !tenuto![eac']2 z | %162
!8va(! (!>!d'/4e'/4f'/4g'/4.a') (!>!g'/4f'/4e'/4d'/4.c') | %163
 (!>!b/4c'/4d'/4e'/4.f') (!>!e'/4d'/4c'/4b/4.a) | (!>!g/4a/4b/4c'/4.d') (!>!c'/4b/4a/4g/4.f) | %165
 .[eae'] !tenuto![eae']2 z | (!>!b/4c'/4d'/4e'/4.f') (!>!e'/4d'/4c'/4b/4.a) | %167
 (!>!g/4a/4b/4c'/4.d') (!>!c'/4b/4a/4g/4.f) | (!>!_e/4f/4g/4a/4.b) (!>!a/4g/4f/4e/4.d) | %169
 .[Aea] !tenuto![Aea]2!8va)! z |"_dim." (!>!d/4e/4f/4g/4.a) (!>!g/4f/4e/4d/4.c) | %171
 (!>!B/4c/4d/4e/4.f) (!>!e/4d/4c/4B/4.A) | (!>!G/4A/4B/4c/4.d) (!>!c/4B/4A/4G/4.F) | %173
 .[EAe] !tenuto![EAe]2 z | (!>!B/4c/4d/4e/4.f) (!>!e/4d/4c/4B/4.A) | %175
 (!>!G/4A/4B/4c/4.d) (!>!c/4B/4A/4G/4.F) | (!>!_E/4F/4G/4A/4.B) (!>!A/4G/4F/4E/4.D) | %177
 .[A,!courtesy!=EA] !tenuto![A,EA]2 z |!p! (!>!d'/4c'/4b/4a/4.g) (!>!d/4c/4B/4A/4.G) | %179
 z !tenuto![A,!courtesy!=EA]3 | (!>!d'/4c'/4b/4a/4.g) (!>!d/4c/4B/4A/4.G) | %181
 z !tenuto![A,!courtesy!=EA] (!>!d/4c/4B/4A/4.G) | %182
 z !tenuto![A,!courtesy!=EA] (!>!d/4c/4B/4A/4.G) | %183
 z !tenuto![A,!courtesy!=EA] (!>!d/4c/4B/4A/4.G) | %184
 z !tenuto![A,!courtesy!=EA] (!>!d/4c/4B/4A/4.G) | z3[K:bass] (D,/4E,/4F,/4G,/4 | %186
 .A,).[D,F,D].[D,F,D].[D,F,^C] | .[D,F,^C].[D,F,=C].[D,F,C].[D,F,=B,] | %188
 .[D,F,=B,].[D,F,_B,].[D,F,B,][D,F,A,]- | [D,F,A,]4 | z4 |[K:treble] z4 | a4 | %193
 !>![dad']/[dad']/ z z2 |] %194
V:2
!pp! !>!.D,,.A,,!>!.D,,.A,, | .D,,.A,,.D,,.A,, | .D,,.A,,.D,,.A,, | .D,,.A,,.D,,.A,, | %4
 .D,,.A,,.D,,.A,, | .D,,.A,,.D,,.A,, | .D,,.A,,.D,,.A,, | .D,,.A,,.D,,.A,, | .D,,.A,,.D,,.A,, | %9
 .D,,.A,,.D,,.A,, | z .[B,F] z .[F,C] | z .[G,D] z .[D,A,] | z .[_E,B,] z .[B,,F,] | %13
 .A,,.E,.A,,.E, | ._E,,.B,,.E,,.B,, | .A,,.E,.A,,.E, | ._E,,.B,,.E,,.B,, | .A,,.E,._E,,.B,, | %18
 .A,,.E,._E,,.B,, | .A,,.E,._E,,.B,, | .A,,.E,._E,,.B,, | .A,,.E,.B,,.E, | .^G,,.E,.A,,.E, | %23
 .B,,.E,.=B,,.E, | .C,.E,.=B,,.E, | .!courtesy!_B,,.E,.A,,.E, | .^G,,.E,.=G,,.^C, | %27
 .^F,,.^C,.=F,,.C, | .E,,.^C,._E,,.C, |!ff! !>![D,,D,][A,,,A,,]!>![D,,D,][A,,,A,,] | %30
 !>![D,,D,][A,,,A,,]!>![D,,D,][A,,,A,,] | !>![D,,D,][A,,,A,,]!>![D,,D,][A,,,A,,] | %32
 !>![D,,D,][A,,,A,,]!>![D,,D,][A,,,A,,] | !>![D,,D,][A,,,A,,]!>![D,,D,][A,,,A,,] | %34
 !>![D,,D,][A,,,A,,]!>![D,,D,][A,,,A,,] | !>![D,,D,][A,,,A,,]!>![D,,D,][A,,,A,,] | %36
 !>![D,,D,][A,,,A,,]!>![D,,D,][A,,,A,,] | !>![D,,D,][A,,,A,,]!>![D,,D,][A,,,A,,] | %38
 !>![D,,D,][A,,,A,,]!>![D,,D,][A,,,A,,] | !>![F,F][D,,D,] !>![E,E][D,,D,] | %40
 !>![D,D][D,,D,] !>![C,C][D,,D,] | !>![B,,B,][D,,D,] !>![A,,A,][D,,D,] | %42
 !>![G,,G,][D,,D,] !>![G,,G,][D,,D,] | !>![D,D][D,,D,] !>![C,C][D,,D,] | %44
 !>![B,,B,][D,,D,] !>![A,,A,][D,,D,] | !>![G,,G,][D,,D,] !>![F,,F,][D,,D,] | %46
 !>![E,,E,][D,,D,] !>![E,,E,][D,,D,] | !>!.F,.D,, !>!.E,.D,, | !>!.D,.D,, !>!.C,.D,, | %49
 !>!.B,,.D,, !>!.A,,.D,, | !>!.G,,.D,, !>!.G,,.D,, | !>!.D,.D,, !>!.C,.D,, | %52
 !>!.B,,.D,, !>!.A,,.D,, | !>!.G,,.D,, !>!.F,,.D,, | !>!.E,,.D,, !>!.E,,.D,, | ._E,,.A,, .E,,.A,, | %56
 .D,,.A,, .D,,.A,, | ._E,,.A,, .E,,.A,, | .D,,.A,, ._E,,.A,, | .D,,.A,, ._E,,.A,, | %60
 .D,,.A,, ._E,,.A,, | .D,,.A,, ._E,,.A,, |!pp! .D,,.A,,.D,,.A,, | .D,,.A,,.D,,.A,, | %64
 .D,,.A,,.D,,.A,, | .D,,.A,,.D,,.A,, | .D,,.A,,.D,,.A,, | .D,,.A,,.D,.A, |[I:staff -1].D.A.da- | %69
[I:staff +1] !fermata!z4 ||[K:D][K:treble] [DA]4 | [B,FB]4 | [DA]4 | [B,FB]4 | D2 C2 | (F2 =F2) | %76
 (A2 ^G2) | (E2 ^E2) |[K:bass] z [D,A,]3 | z [B,,F,B,]3 | z [D,A,]3 | z [B,,F,B,]3 | z (D,2 C,) | %83
 z (F,2 =F,) | z (A,2 ^G,) | z [A,,E,A,]3 | %86
[K:treble]!p! (6:4:6(A,/G/A/[I:staff -1]e/g/e'/) !tenuto!b2 | %87
[I:staff +1] (6:4:6(A,/G/A/[I:staff -1]e/g/e'/) !tenuto!b2 |[I:staff +1] .A,.E.G.B | .c.e.g z | %90
 (6:4:6(=F,/_E/A/[I:staff -1]=c/_e/=c'/) !tenuto!g2 | %91
[I:staff +1] (6:4:6(=F,/_E/A/[I:staff -1]=c/_e/=c'/) !tenuto!g2 | %92
[I:staff +1][K:bass] .=F,.=C[I:staff -1]._E.G | .A.=c._e[I:staff +1] z | %94
!pp! .D,.A,.=C[I:staff -1].E |.F.A.=c[I:staff +1] !fermata!z |[K:treble] [Gd]4 | [EBe]4 | [Gd]4 | %99
 [EBe]4 | G2 F2 | (B2 _B2) | (d2 c2) | (A2 ^A2) |[K:bass] z [G,D]3 | z [E,B,E]3 | z [G,D]3 | %107
 z [E,B,E]3 | z (G,2 F,) | z (B,2 _B,) | z (D2 C) | z [D,A,D]3 | %112
[K:treble] (6:4:6(D/=c/f/[I:staff -1]a/=c'/a'/) !tenuto!e'2 |[I:staff +1] .D.B.d.g | %114
 (6:4:6(D/A/c/[I:staff -1]e/g/e'/) !tenuto!b2 |[I:staff +1] .D.A.d.f | %116
[K:bass]"^dim." (6:4:6(D,/=C/F/[I:staff -1]A/=c/a/)[I:staff +1][K:treble][I:staff -1] !tenuto!e2 | %117
[I:staff +1][K:bass] .D,.B,.D.G | (6:4:6(D,/A,/C/[I:staff -1]E/G/e/) !tenuto!B2 | %119
[I:staff +1] .D,.A,.D.F |[K:treble] !>!.d.A.D.A |[K:bass]!>(! .D.A,.D.A, |.D,.A,.D,!>)!.A,, || %123
[K:F]!pp! !>!.D,,.A,,!>!.D,,.A,, | .D,,.A,,.D,,.A,, | .D,,.A,,.D,,.A,, | .D,,.A,,.D,,.A,, | %127
 .D,,.A,,.D,,.A,, | .D,,.A,,.D,,.A,, | .D,,.A,,.D,,.A,, | .D,,.A,,.D,,.A,, | .D,,.A,,.D,,.A,, | %132
 .D,,.A,,.D,,.A,, | z .[B,F] z .[F,C] | z .[G,D] z .[D,A,] | z .[_E,B,] z .[B,,F,] | %136
 .A,,.E,.A,,.E, | ._E,,.B,,.E,,.B,, | .A,,.E,.A,,.E, | ._E,,.B,,.E,,.B,, | .A,,.E,._E,,.B,, | %141
 .A,,.E,._E,,.B,, | .A,,.E,._E,,.B,, | .A,,.E,._E,,.B,, | .A,,.E,.B,,.E, | .^G,,.E,.A,,.E, | %146
 .B,,.E,.=B,,.E, | .C,.E,.=B,,.E, | .!courtesy!_B,,.E,.A,,.E, | .^G,,.E,.=G,,.^C, | %150
 .^F,,.^C,.=F,,.C, | .E,,.^C,._E,,.C, |!ff! !>![D,,D,][A,,,A,,]!>![D,,D,][A,,,A,,] | %153
 !>![D,,D,][A,,,A,,]!>![D,,D,][A,,,A,,] | !>![D,,D,][A,,,A,,]!>![D,,D,][A,,,A,,] | %155
 !>![D,,D,][A,,,A,,]!>![D,,D,][A,,,A,,] | !>![D,,D,][A,,,A,,]!>![D,,D,][A,,,A,,] | %157
 !>![D,,D,][A,,,A,,]!>![D,,D,][A,,,A,,] | !>![D,,D,][A,,,A,,]!>![D,,D,][A,,,A,,] | %159
 !>![D,,D,][A,,,A,,]!>![D,,D,][A,,,A,,] | !>![D,,D,][A,,,A,,]!>![D,,D,][A,,,A,,] | %161
 !>![D,,D,][A,,,A,,]!>![D,,D,][A,,,A,,] | !>![F,F][D,,D,] !>![E,E][D,,D,] | %163
 !>![D,D][D,,D,] !>![C,C][D,,D,] | !>![B,,B,][D,,D,] !>![A,,A,][D,,D,] | %165
 !>![G,,G,][D,,D,] !>![G,,G,][D,,D,] | !>![D,D][D,,D,] !>![C,C][D,,D,] | %167
 !>![B,,B,][D,,D,] !>![A,,A,][D,,D,] | !>![G,,G,][D,,D,] !>![F,,F,][D,,D,] | %169
 !>![E,,E,][D,,D,] !>![E,,E,][D,,D,] | !>!.F,.D,, !>!.E,.D,, | !>!.D,.D,, !>!.C,.D,, | %172
 !>!.B,,.D,, !>!.A,,.D,, | !>!.G,,.D,, !>!.G,,.D,, | !>!.D,.D,, !>!.C,.D,, | %175
 !>!.B,,.D,, !>!.A,,.D,, | !>!.G,,.D,, !>!.F,,.D,, | !>!.E,,.D,, !>!.E,,.D,, | ._E,,.A,, .E,,.A,, | %179
 .D,,.A,, .D,,.A,, | ._E,,.A,, .E,,.A,, | .D,,.A,, ._E,,.A,, | .D,,.A,, ._E,,.A,, | %183
 .D,,.A,, ._E,,.A,, | .D,,.A,, ._E,,.A,, |!pp! .D,,.A,,.D,,.A,, | .D,,.A,,.D,,.A,, | %187
 .D,,.A,,.D,,.A,, | .D,,.A,,.D,,.A,, | .D,,.A,,.D,,.A,, | .D,,.A,,.D,.A, |[I:staff -1].D.A.da- | %192
[I:staff +1] z4 |!ff! !>![D,,A,,D,]/[D,,A,,D,]/ z z2 |] %194
V:3
 x4 | x4 | x4 | x4 | x4 | x4 | x4 | x4 | x4 | x4 | x4 | x4 | x4 | x4 | x4 | x4 | x4 | x4 | x4 | %19
 x4 | x4 | x4 | x4 | x4 | x4 | x4 |[K:bass] x4 | x4 | x4 | x4 | x3[K:treble] x | x4 | x4 | x4 | %34
 x4 | x4 | x4 | x4 | x4 |!8va(! x4 | x4 | x4 | x4 | x4 | x4 | x4 | x3!8va)! x | x4 | x4 | x4 | x4 | %51
 x4 | x4 | x4 | x4 | x4 | x4 | x4 | x4 | x4 | x4 | x4 | x3[K:bass] x | x4 | x4 | x4 | x4 | x4 | %68
[K:treble] x4 | x4 ||[K:D] [df]4 | d4 | [df]4 | d4 | [df]4 | d4 | d4 | c4 | z [DF]3 | z D3 | %80
 z [DF]3 | z D3 | z [DF]3 | z D3 | z D3 | z C3 | x4 | x4 | x4 | x4 | x4 | x4 | x4 | x4 | x4 | x4 | %96
 [gb]4 | g4 | [gb]4 | g4 | [gb]4 | g4 | g4 | f4 | z [GB]3 | z G3 | z [GB]3 | z G3 | z!<(! [GB]3 | %109
 z G3 | z!<)! G3 | z F3 | x4 | x4 | x4 | x4 | x4 | x4 | x4 | x4 | x4 | x4 | x4 ||[K:F] x4 | x4 | %125
 x4 | x4 | x4 | x4 | x4 | x4 | x4 | x4 | x4 | x4 | x4 | x4 | x4 | x4 | x4 | x4 | x4 | x4 | x4 | %144
 x4 | x4 | x4 | x4 | x4 |[K:bass] x4 | x4 | x4 | x4 | x3[K:treble] x | x4 | x4 | x4 | x4 | x4 | %159
 x4 | x4 | x4 |!8va(! x4 | x4 | x4 | x4 | x4 | x4 | x4 | x3!8va)! x | x4 | x4 | x4 | x4 | x4 | x4 | %176
 x4 | x4 | x4 | x4 | x4 | x4 | x4 | x4 | x4 | x3[K:bass] x | x4 | x4 | x4 | x4 | x4 | %191
[K:treble] x4 | x4 | x4 |] %194
V:4
 x4 | x4 | x4 | x4 | x4 | x4 | x4 | x4 | x4 | x4 | x4 | x4 | x4 | x4 | x4 | x4 | x4 | x4 | x4 | %19
 x4 | x4 | x4 | x4 | x4 | x4 | x4 | x4 | x4 | x4 | x4 | x4 | x4 | x4 | x4 | x4 | x4 | x4 | x4 | %38
 x4 | x4 | x4 | x4 | x4 | x4 | x4 | x4 | x4 | x4 | x4 | x4 | x4 | x4 | x4 | x4 | x4 | x4 | x4 | %57
 x4 | x4 | x4 | x4 | x4 | x4 | x4 | x4 | x4 | x4 | x4 | x4 | x4 ||[K:D][K:treble] x4 | x4 | x4 | %73
 x4 | A4 | [B,B]4 | E4 | [A,A]4 |[K:bass] x4 | x4 | x4 | x4 | x A,3 | x [B,,B,]3 | x{/E,,} E,,3 | %85
 x4 |[K:treble] x2 !tenuto!g2 | x2 !tenuto!g2 | x4 | x4 | x2 !tenuto!_e2 | x2 !tenuto!_e2 | %92
[K:bass] x4 | x4 | x4 | x4 |[K:treble] x4 | x4 | x4 | x4 | d4 | [Ee]4 | A4 | [Dd]4 |[K:bass] x4 | %105
 x4 | x4 | x4 | x D3 | x [E,E]3 | x{/A,,} A,,3 | x4 |[K:treble] x2 !tenuto!=c'2 | x4 | %114
 x2 !tenuto!g2 | x4 |[K:bass] x2[K:treble] !tenuto!=c2 |[K:bass] x4 | x2 !tenuto!G2 | x4 | %120
[K:treble] x4 |[K:bass] x4 | x4 ||[K:F] x4 | x4 | x4 | x4 | x4 | x4 | x4 | x4 | x4 | x4 | x4 | x4 | %135
 x4 | x4 | x4 | x4 | x4 | x4 | x4 | x4 | x4 | x4 | x4 | x4 | x4 | x4 | x4 | x4 | x4 | x4 | x4 | %154
 x4 | x4 | x4 | x4 | x4 | x4 | x4 | x4 | x4 | x4 | x4 | x4 | x4 | x4 | x4 | x4 | x4 | x4 | x4 | %173
 x4 | x4 | x4 | x4 | x4 | x4 | x4 | x4 | x4 | x4 | x4 | x4 | x4 | x4 | x4 | x4 | x4 | x4 | x4 | %192
 x4 | x4 |] %194

